docs/.gitbook/assets/icon-check-circle-16@dark.svg

<svg width="32" height="32" viewBox="0 0 16 16" fill="none" xmlns="http://www.w3.org/2000/svg">
<rect x="0" y="0" width="16" height="16" fill="#181c1f"/>
<path fill-rule="evenodd" clip-rule="evenodd" d="M8 2.5C4.96243 2.5 2.5 4.96243 2.5 8C2.5 11.0376 4.96243 13.5 8 13.5C11.0376 13.5 13.5 11.0376 13.5 8C13.5 4.96243 11.0376 2.5 8 2.5ZM1 8C1 4.13401 4.13401 1 8 1C11.866 1 15 4.13401 15 8C15 11.866 11.866 15 8 15C4.13401 15 1 11.866 1 8ZM10.7969 6.26327C10.7968 6.26328 10.7968 6.26329 10.7968 6.2633L10.7968 6.26332L10.7967 6.26341L10.796 6.26414L10.792 6.2685L10.7741 6.28779C10.758 6.30526 10.7336 6.33179 10.702 6.36662C10.6389 6.43633 10.5469 6.53913 10.4342 6.66898C10.2085 6.92912 9.90142 7.29563 9.57645 7.72047C8.90946 8.59243 8.23105 9.62875 7.96558 10.4746C7.88704 10.7248 7.68347 10.9159 7.42874 10.9784C7.17401 11.0409 6.90514 10.9658 6.71967 10.7803L5.21967 9.28033C4.92678 8.98744 4.92678 8.51256 5.21967 8.21967C5.51256 7.92678 5.98744 7.92678 6.28033 8.21967L6.99657 8.93591C7.39682 8.16543 7.92377 7.41215 8.38504 6.80913C8.73315 6.35404 9.06071 5.96315 9.30132 5.68587C9.42182 5.54702 9.52098 5.4361 9.59063 5.35927C9.62546 5.32084 9.65294 5.2909 9.67204 5.2702L9.69431 5.24619L9.7005 5.23955L9.70232 5.23761L9.7029 5.23698L9.70311 5.23676C9.7032 5.23667 9.70327 5.23659 10.25 5.75L9.70327 5.23659C9.98682 4.93464 10.4615 4.91972 10.7634 5.20327C11.0653 5.48677 11.0803 5.96131 10.7969 6.26327Z" fill="#fff"/>
</svg>

<svg xmlns="http://www.w3.org/2000/svg" width="32" height="32" fill="none" viewBox="0 0 16 16"><path fill="#181c1f" d="M0 0h16v16H0z"/><path fill="#fff" fill-rule="evenodd" d="M8 2.5a5.5 5.5 0 1 0 0 11 5.5 5.5 0 0 0 0-11M1 8a7 7 0 1 1 14 0A7 7 0 0 1 1 8m9.797-1.737-.001.001-.004.005-.018.019a13 13 0 0 0-.34.381c-.225.26-.533.627-.858 1.051-.667.872-1.345 1.909-1.61 2.755a.75.75 0 0 1-1.246.305l-1.5-1.5a.75.75 0 0 1 1.06-1.06l.717.716c.4-.77.927-1.524 1.388-2.127A24 24 0 0 1 9.672 5.27l.022-.024.006-.006.002-.002v-.001h.001l.547.513-.547-.513a.75.75 0 0 1 1.094 1.026" clip-rule="evenodd"/></svg>
